X:5876
T:Scottish des ébouliers (B. Le Tron)
O:england
C:Trad 1, 100
M:2/4
L:1/16
K:G
B,EFG B,3G|ECDE E4|AECA GDB,D|\
=FCA,F EB,G,2|B,EFG B,3G|
ECDE E4|G,B,EB, A,C=FC|GDB,G A4:|\
|:BGEB c2B2|AB (3cBA e4|
eBGe dcBA|dAFd cdB2|\
BGEB c2B2|AB (3cBA e4|\
eBGe dcBA|ABGF E4:|


